X:43
T:New White Hart Hornpipe, The
B:Walsh
M:3/2
L:1/8
N:
K:D
d2 Bc dBAG FGAF | G2 E2 efed c2 A2| BcdB ABAG FGAG|F2 D2 D2 c2 d4::\
d2 de gefg fgad| c2 a2^g2 a2 ed| cdec d2 cBABAG|FGAF D2 c2 d4::\
dA F2 BG E2 AF D2| cdef e2 E2 FGAF| d2 A2 B2 G2 A2 F2| gfed cdec d4||
